images/logo.svg

<svg width="130" height="88" fill="none" xmlns="http://www.w3.org/2000/svg"><path d="M39.96 55.816H10.728L4.32 70H.36l23.184-50.4h3.672L50.4 70h-3.96l-6.48-14.184zm-1.368-3.096L25.344 23.632 12.168 52.72h26.424z" fill="#fff"/><path d="M40.5 33.68L26.34 65h-3.06L9.18 33.68h3.18L24.84 61.7l12.6-28.02h3.06zm21.038.42h3.51V53h-3.51V34.1zm25.416 0V53h-2.889L73.643 40.202V53H70.16V34.1h2.89l10.42 12.798V34.1h3.483zm8.575 2.943v5.751h9.125v2.97h-9.126V53h-3.51V34.1h13.797v2.943H95.528zm22.299 16.227c-1.926 0-3.663-.414-5.211-1.242-1.548-.846-2.763-2.007-3.645-3.483-.882-1.494-1.323-3.159-1.323-4.995 0-1.836.441-3.492 1.323-4.968a9.174 9.174 0 013.645-3.483c1.548-.846 3.285-1.269 5.211-1.269 1.926 0 3.663.423 5.211 1.269 1.548.828 2.763 1.98 3.645 3.456.882 1.476 1.323 3.141 1.323 4.995s-.441 3.519-1.323 4.995c-.882 1.476-2.097 2.637-3.645 3.483-1.548.828-3.285 1.242-5.211 1.242zm0-3.078c1.26 0 2.394-.279 3.402-.837a6.275 6.275 0 002.376-2.376c.576-1.026.864-2.169.864-3.429 0-1.26-.288-2.394-.864-3.402a6.033 6.033 0 00-2.376-2.376c-1.008-.576-2.142-.864-3.402-.864-1.26 0-2.394.288-3.402.864a6.033 6.033 0 00-2.376 2.376c-.576 1.008-.864 2.142-.864 3.402 0 1.26.288 2.403.864 3.429a6.275 6.275 0 002.376 2.376c1.008.558 2.142.837 3.402.837z" fill="#fff"/></svg>

<svg width="130" height="88" viewBox="0 0 130 88" fill="none" xmlns="http://www.w3.org/2000/svg">
<path d="M39.96 55.816H10.728L4.32 70H0.36L23.544 19.6H27.216L50.4 70H46.44L39.96 55.816ZM38.592 52.72L25.344 23.632L12.168 52.72H38.592Z" fill="white"/>
<path d="M40.5 33.68L26.34 65H23.28L9.18 33.68H12.36L24.84 61.7L37.44 33.68H40.5Z" fill="white"/>
<path d="M61.538 34.1H65.048V53H61.538V34.1ZM86.9541 34.1V53H84.0651L73.6431 40.202V53H70.1601V34.1H73.0491L83.4711 46.898V34.1H86.9541ZM95.5285 37.043V42.794H104.654V45.764H95.5285V53H92.0185V34.1H105.815V37.043H95.5285ZM117.828 53.27C115.902 53.27 114.165 52.856 112.617 52.028C111.069 51.182 109.854 50.021 108.972 48.545C108.09 47.051 107.649 45.386 107.649 43.55C107.649 41.714 108.09 40.058 108.972 38.582C109.854 37.088 111.069 35.927 112.617 35.099C114.165 34.253 115.902 33.83 117.828 33.83C119.754 33.83 121.491 34.253 123.039 35.099C124.587 35.927 125.802 37.079 126.684 38.555C127.566 40.031 128.007 41.696 128.007 43.55C128.007 45.404 127.566 47.069 126.684 48.545C125.802 50.021 124.587 51.182 123.039 52.028C121.491 52.856 119.754 53.27 117.828 53.27ZM117.828 50.192C119.088 50.192 120.222 49.913 121.23 49.355C122.238 48.779 123.03 47.987 123.606 46.979C124.182 45.953 124.47 44.81 124.47 43.55C124.47 42.29 124.182 41.156 123.606 40.148C123.03 39.122 122.238 38.33 121.23 37.772C120.222 37.196 119.088 36.908 117.828 36.908C116.568 36.908 115.434 37.196 114.426 37.772C113.418 38.33 112.626 39.122 112.05 40.148C111.474 41.156 111.186 42.29 111.186 43.55C111.186 44.81 111.474 45.953 112.05 46.979C112.626 47.987 113.418 48.779 114.426 49.355C115.434 49.913 116.568 50.192 117.828 50.192Z" fill="white"/>
</svg>
